symbolic/22x22/apps/2064-read-only-memories.svg

<svg width="22" height="22" version="1.1" xmlns="http://www.w3.org/2000/svg">
 <circle cx="11" cy="11.5" r="10" style="opacity:.2"/>
 <circle cx="11" cy="11" r="10" style="fill:#4fc8f3"/>
 <rect x="15" y="13.5" width="3" height="1" ry=".5" style="opacity:.2"/>
 <path d="M 11,1 A 10,10 0 0 0 1,11 10,10 0 0 0 1.0098,11.293 10,10 0 0 1 11,1.5 10,10 0 0 1 20.99,11.207 10,10 0 0 0 21,11 10,10 0 0 0 11,1 Z" style="fill:#ffffff;opacity:.2"/>
 <path d="m11 1.5a10 10 0 0 0-1 0.060547v1.939453c0 0.554 0.446 1 1 1s1-0.446 1-1v-1.9492188a10 10 0 0 0-1-0.0507812zm3.980469 0.8300781c0.0085 0.2413143 0.01953 0.4923848 0.01953 0.6699219 0 1.3807119-1.790861 2.5-4 2.5s-4-1.1192881-4-2.5v-0.6523438a10 10 0 0 0-0.9824209 0.4960938c-0.0035 0.05235-0.017444 0.1036625-0.017578 0.15625 0 1.9329966 2.2385763 3.5 4.9999999 3.5 2.761424 0 5-1.5670034 5-3.5-1.39e-4 -0.05461-0.01576-0.1077568-0.01953-0.1621094a10 10 0 0 0-1.000001-0.5078125z" style="opacity:.2"/>
 <path d="m11 1a10 10 0 0 0-1 0.0605469v1.9394531c0 0.554 0.446 1 1 1s1-0.446 1-1v-1.9492188a10 10 0 0 0-1-0.0507812zm3.980469 0.8300781c0.008511 0.2413143 0.019531 0.4923848 0.019531 0.6699219 0 1.3807119-1.790861 2.5-4 2.5s-4-1.1192881-4-2.5v-0.6523438a10 10 0 0 0-0.9824219 0.4960938c-0.0035002 0.0523498-0.0174438 0.1036625-0.0175781 0.15625 0 1.9329966 2.2385763 3.5 5 3.5 2.761424 0 5-1.5670034 5-3.5-1.39e-4 -0.0546104-0.015763-0.1077568-0.019531-0.1621094a10 10 0 0 0-1-0.5078125z" style="fill:#ffffff"/>
 <path d="m7.5 8.5c-0.277 0-0.5 0.223-0.5 0.5v3c0 0.277 0.223 0.5 0.5 0.5s0.5-0.223 0.5-0.5v-3c0-0.277-0.223-0.5-0.5-0.5zm7 0c-0.277 0-0.5 0.223-0.5 0.5v3c0 0.277 0.223 0.5 0.5 0.5s0.5-0.223 0.5-0.5v-3c0-0.277-0.223-0.5-0.5-0.5z" style="opacity:.2"/>
 <rect x="7" y="8" width="1" height="4" ry=".5" style="fill:#ffffff"/>
 <rect x="14" y="8" width="1" height="4" ry=".5" style="fill:#ffffff"/>
 <rect x="15" y="13" width="3" height="1" ry=".5" style="fill:#f8bfd5"/>
 <rect x="3.9999995" y="13.5" width="3" height="1" ry=".5" style="opacity:.2"/>
 <rect x="4" y="13" width="3" height="1" ry=".5" style="fill:#f8bfd5"/>
 <path d="m13.496094 15.49409a0.50005 0.50005 0 0 0-0.347656 0.859375l0.146484 0.146485h-5.7929689a0.50005 0.50005 0 1 0 0 1h6.9999999a0.50005 0.50005 0 0 0 0.353516-0.853516l-1-1a0.50005 0.50005 0 0 0-0.359375-0.152344z" style="opacity:.2"/>
 <path d="m7.5010593 16.49995h6.9999997l-1-1" style="fill:none;stroke-linecap:round;stroke-linejoin:round;stroke-width:1px;stroke:#ffffff"/>
</svg>

<svg width="22" height="22" xmlns="http://www.w3.org/2000/svg"><circle cx="11" cy="11.5" r="10" style="opacity:.2"/><circle cx="11" cy="11" r="10" style="fill:#4fc8f3"/><rect x="15" y="13.5" width="3" height="1" ry=".5" style="opacity:.2"/><path d="M11 1A10 10 0 0 0 1 11a10 10 0 0 0 .01.293A10 10 0 0 1 11 1.5a10 10 0 0 1 9.99 9.707A10 10 0 0 0 21 11 10 10 0 0 0 11 1z" style="fill:#fff;opacity:.2"/><path d="M11 1.5a10 10 0 0 0-1 .06V3.5c0 .554.446 1 1 1s1-.446 1-1V1.55a10 10 0 0 0-1-.05zm3.98.83c.009.241.02.492.02.67 0 1.38-1.79 2.5-4 2.5S7 4.38 7 3v-.652a10 10 0 0 0-.982.496C6.014 2.896 6 2.947 6 3c0 1.933 2.239 3.5 5 3.5s5-1.567 5-3.5c0-.055-.016-.108-.02-.162a10 10 0 0 0-1-.508z" style="opacity:.2"/><path d="M11 1a10 10 0 0 0-1 .06V3c0 .554.446 1 1 1s1-.446 1-1V1.05A10 10 0 0 0 11 1zm3.98.83c.009.241.02.492.02.67C15 3.88 13.21 5 11 5S7 3.88 7 2.5v-.652a10 10 0 0 0-.982.496C6.014 2.396 6 2.447 6 2.5 6 4.433 8.239 6 11 6s5-1.567 5-3.5c0-.055-.016-.108-.02-.162a10 10 0 0 0-1-.508z" style="fill:#fff"/><path d="M7.5 8.5c-.277 0-.5.223-.5.5v3a.499.499 0 1 0 1 0V9c0-.277-.223-.5-.5-.5zm7 0c-.277 0-.5.223-.5.5v3a.499.499 0 1 0 1 0V9c0-.277-.223-.5-.5-.5z" style="opacity:.2"/><rect x="7" y="8" width="1" height="4" ry=".5" style="fill:#fff"/><rect x="14" y="8" width="1" height="4" ry=".5" style="fill:#fff"/><rect x="15" y="13" width="3" height="1" ry=".5" style="fill:#f8bfd5"/><rect x="4" y="13.5" width="3" height="1" ry=".5" style="opacity:.2"/><rect x="4" y="13" width="3" height="1" ry=".5" style="fill:#f8bfd5"/><path d="M13.496 15.494a.5.5 0 0 0-.348.86l.147.146H7.502a.5.5 0 1 0 0 1h7a.5.5 0 0 0 .353-.854l-1-1a.5.5 0 0 0-.359-.152z" style="opacity:.2"/><path d="M7.501 16.5h7l-1-1" style="fill:none;stroke-linecap:round;stroke-linejoin:round;stroke-width:1px;stroke:#fff"/></svg>
